X: 145
T: Missa Tous les regretz / Sanctus
N: Derived from Rue1031d-Missa_Tous_les_regretz-Sanctus.krn
C: Pierre de la Rue
%%abc-version 2.0
%%abcx-abcm2ps-target-version 5.9.1 (29 Sep 2008)
%%abc-creator hum2abc beta
%%abcx-conversion-date 2019/02/17 08:01:15
%%abc-edited-by Jesse Rodin
%%abc-edited-by Chris Gage 06-11-2013
%%abcx-initial-encoding-date 2013/08/05/
%%humdrum-veritas 3552079756
%%humdrum-veritas-data 3306172491
%%linebreak <none>
%%barnumbers 0
L: 1/4
M: 2/1
Q: 1/2=120
%%staves [1 2 3 4]
V: 1 clef=treble
V: 2 clef=treble-8
V: 3 clef=treble-8
V: 4 clef=bass
K: C
[V:1] A8- | 
[V:2] A6B2 | 
[V:3] z8 | 
[V:4] z8 | 
[V:1] A8 | 
[V:2] c2d4c2 | 
[V:3] z8 | 
[V:4] z8 | 
[V:1] A6GF | 
[V:2] f6ed | 
[V:3] z8 | 
[V:4] z8 | 
[V:1] A2G3FED | 
[V:2] f2e3dcB | 
[V:3] z8 | 
[V:4] z8 | 
[V:1] C4z2C2 | 
[V:2] A8 | 
[V:3] z8 | 
[V:4] z8 | 
[V:1] F3GA2_B2- | 
[V:2] d8 | 
[V:3] z8 | 
[V:4] z8 | 
[V:1] B2A4G2 | 
[V:2] c4B4 | 
[V:3] z8 | 
[V:4] z8 | 
[V:1] F2EDEFG2- | 
[V:2] AGABc4 | 
[V:3] z8 | 
[V:4] z8 | 
[V:1] GFD2C4 | 
[V:2] B4A2c2- | 
[V:3] z8 | 
[V:4] z8 | 
[V:1] z2E2F2A2- | 
[V:2] cBG2F4 | 
[V:3] z8 | 
[V:4] z8 | 
[V:1] AGEGF3E | 
[V:2] z2c2d3c | 
[V:3] z8 | 
[V:4] z8 | 
[V:1] C3DEDF2- | 
[V:2] A2c3BAG | 
[V:3] z8 | 
[V:4] z8 | 
[V:1] FEDCD2E2- | 
[V:2] A2_B3AGF | 
[V:3] z8 | 
[V:4] z8 | 
[V:1] E2D4^C2 | 
[V:2] GFEDE4 | 
[V:3] z8 | 
[V:4] z8 | 
[V:1] D4z2F2- | 
[V:2] D8 | 
[V:3] A8- | 
[V:4] z8 | 
[V:1] FEDCD4 | 
[V:2] z2F2D2F2- | 
[V:3] A8 | 
[V:4] z8 | 
[V:1] C4A2A2- | 
[V:2] FEC2D2d2 | 
[V:3] A8 | 
[V:4] z4z2F,2- | 
[V:1] AGFEF4 | 
[V:2] A2d3cAB | 
[V:3] A6GF | 
[V:4] F,E,D,C,D,4 | 
[V:1] E8 | 
[V:2] c8 | 
[V:3] A2G3FED | 
[V:4] C,6C,2 | 
[V:1] z4G4- | 
[V:2] z4e4- | 
[V:3] C2c4BA | 
[V:4] C,4C,4 | 
[V:1] G2G2G4- | 
[V:2] e2e2e4- | 
[V:3] c2B3AGF | 
[V:4] E,6E,2 | 
[V:1] G4G4 | 
[V:2] e2dcB4 | 
[V:3] E8 | 
[V:4] G,4G,F,E,D, | 
[V:1] E4D2E2- | 
[V:2] c4z4 | 
[V:3] z2E2F2E2 | 
[V:4] C,4D,2C,2- | 
[V:1] E2DCB,4 | 
[V:2] z8 | 
[V:3] F2A4^G2 | 
[V:4] C,B,,A,,2E,4 | 
[V:1] A,4z2A,2 | 
[V:2] z2F2E2F2- | 
[V:3] A8 | 
[V:4] A,,8 | 
[V:1] B,2D4C2 | 
[V:2] F2EDE4 | 
[V:3] z8 | 
[V:4] z8 | 
[V:1] D2C2D2F2- | 
[V:2] D2A2G2F2 | 
[V:3] z8 | 
[V:4] z2A,,2B,,2D,2- | 
[V:1] FEE2F2ED | 
[V:2] G4F4 | 
[V:3] z8 | 
[V:4] D,2C,2D,2C,B,, | 
[V:1] C4z4 | 
[V:2] z2A3GG2 | 
[V:3] c8- | 
[V:4] A,,2F,3E,E,2 | 
[V:1] z8 | 
[V:2] A2GFE2A2 | 
[V:3] c4c4 | 
[V:4] F,2E,D,C,4 | 
[V:1] z2A3GG2 | 
[V:2] G2F2G4 | 
[V:3] c8- | 
[V:4] z2F,4E,2 | 
[V:1] A2GFE2c2- | 
[V:2] F4c3d | 
[V:3] c8 | 
[V:4] F,2E,D,C,4- | 
[V:1] cBA4^G2 | 
[V:2] e2f2e4 | 
[V:3] c4B4 | 
[V:4] C,2D,2E,4 | 
[V:1] A4z4 | 
[V:2] z2c3BA2- | 
[V:3] A4c4- | 
[V:4] z2A,3G,F,2- | 
[V:1] z8 | 
[V:2] A2G2A2F2 | 
[V:3] c8 | 
[V:4] F,2E,2F,2A,2 | 
[V:1] z8 | 
[V:2] z2G4F2 | 
[V:3] B8- | 
[V:4] G,2E,4D,2 | 
[V:1] z8 | 
[V:2] G3EE4 | 
[V:3] B8 | 
[V:4] E,2E,2G,4 | 
[V:1] z8 | 
[V:2] z2F4E2 | 
[V:3] A8- | 
[V:4] F,2D,4C,2 | 
[V:1] z8 | 
[V:2] F2D4C2 | 
[V:3] A8- | 
[V:4] D,2F,2E,4 | 
[V:1] z2D4C2 | 
[V:2] D2F2E4 | 
[V:3] A8 | 
[V:4] D,4A,,4 | 
[V:1] D2F2EDE2 | 
[V:2] D2d2cBc2 | 
[V:3] z8 | 
[V:4] z4A,,4 | 
[V:1] D2G4E2 | 
[V:2] d3cBGA2- | 
[V:3] z8 | 
[V:4] B,,2G,,2B,,2C,2 | 
[V:1] F2E4DC | 
[V:2] A2G4^F2 | 
[V:3] z4A4 | 
[V:4] D,2G,,2A,,4 | 
[V:1] B,8 | 
[V:2] G8- | 
[V:3] d8 | 
[V:4] G,,8- | 
[V:1] z4B4- | 
[V:2] G8 | 
[V:3] d4d4 | 
[V:4] G,,8 | 
[V:1] B2AGA2B2 | 
[V:2] z8 | 
[V:3] d8 | 
[V:4] z4D,4 | 
[V:1] c2BAc2B2- | 
[V:2] z8 | 
[V:3] c6d2- | 
[V:4] A,,4A,,2G,,2- | 
[V:1] B2A4G2 | 
[V:2] z4G4 | 
[V:3] dcA2B4 | 
[V:4] G,,2A,,2E,4 | 
[V:1] F3E/D/F2E2- | 
[V:2] A2F3DA2- | 
[V:3] A8- | 
[V:4] A,,2D,4C,2 | 
[V:1] E2D3^CC2 | 
[V:2] A2GFE4 | 
[V:3] A8- | 
[V:4] D,2C,B,,A,,4 | 
[V:1] D8 ||  
[V:2] D8 ||  
[V:3] A8 ||  
[V:4] D,8 ||  
[V:1]  [K:C] [K:clef=treble][M:2/1]z4A4- | 
[V:2]  [K:C] [K:clef=treble-8][M:2/1]d8 | 
[V:3]  [K:C] [K:clef=treble-8][M:2/1]z8 | 
[V:4]  [K:C] [K:clef=bass][M:2/1]D,8 | 
[V:1] A4E4 | 
[V:2] A4c4 | 
[V:3] z8 | 
[V:4] F,4A,3E, | 
[V:1] G4B4- | 
[V:2] e6d2 | 
[V:3] z8 | 
[V:4] E,4G,4- | 
[V:1] B2A2A4 | 
[V:2] d4z2d2- | 
[V:3] z8 | 
[V:4] G,2D,2D,4 | 
[V:1] z2A4G2 | 
[V:2] d2c2A2B2 | 
[V:3] z8 | 
[V:4] z2F,4E,2 | 
[V:1] E2F2G4- | 
[V:2] c3de2c2- | 
[V:3] z8 | 
[V:4] C,4C,3D, | 
[V:1] G4G3A | 
[V:2] c2BAG4- | 
[V:3] z8 | 
[V:4] E,2C,4B,,A,, | 
[V:1] B2G4FE | 
[V:2] G8- | 
[V:3] z8 | 
[V:4] G,,8- | 
[V:1] D2G4F2 | 
[V:2] G4A4 | 
[V:3] z8 | 
[V:4] G,,4D,4 | 
[V:1] E2F4E2 | 
[V:2] G2d4c2 | 
[V:3] z8 | 
[V:4] z2D,4A,,2 | 
[V:1] D2E4D2 | 
[V:2] B2c4B2 | 
[V:3] z8 | 
[V:4] B,,2A,,2C,2G,,2 | 
[V:1] C2D4C2 | 
[V:2] A2B4A2 | 
[V:3] z8 | 
[V:4] A,,2G,,4A,,2 | 
[V:1] B,2A,2B,4 | 
[V:2] G2A4^G2 | 
[V:3] z8 | 
[V:4] E,2F,2E,4 | 
[V:1] z2c3BA2 | 
[V:2] A8 | 
[V:3] z8 | 
[V:4] z2A,3G,F,2 | 
[V:1] G2F2E2D2 | 
[V:2] z8 | 
[V:3] z8 | 
[V:4] E,2D,2G,3F, | 
[V:1] C2D4^C2 | 
[V:2] z8 | 
[V:3] z8 | 
[V:4] E,2D,2E,4 | 
[V:1] D8 | 
[V:2] z4z2f2- | 
[V:3] z8 | 
[V:4] D,4z2D,2- | 
[V:1] z8 | 
[V:2] fed2c2B2 | 
[V:3] z8 | 
[V:4] D,C,B,,2A,,2G,,2 | 
[V:1] z2d3cA2 | 
[V:2] A2G4^F2 | 
[V:3] z8 | 
[V:4] C,2B,,2A,,4 | 
[V:1] B2G4G2- | 
[V:2] G8- | 
[V:3] z8 | 
[V:4] G,,8 | 
[V:1] GFE2D2E2- | 
[V:2] G8- | 
[V:3] z8 | 
[V:4] z2C,2B,,2C,2- | 
[V:1] EFG3FED | 
[V:2] G8 | 
[V:3] z8 | 
[V:4] C,D,E,3D,C,B,, | 
[V:1] C8 | 
[V:2] A4z2c2- | 
[V:3] z8 | 
[V:4] A,,8 | 
[V:1] z8 | 
[V:2] cBA2G2A2- | 
[V:3] z8 | 
[V:4] z2F,2E,2F,2- | 
[V:1] z8 | 
[V:2] ABc3BAG | 
[V:3] z8 | 
[V:4] F,G,A,3G,F,E, | 
[V:1] z2c3BA2 | 
[V:2] F8 | 
[V:3] z8 | 
[V:4] D,2A,,2z2F,2 | 
[V:1] G2A3Bc2- | 
[V:2] c8- | 
[V:3] z8 | 
[V:4] E,2F,3G,A,2- | 
[V:1] cBAGF4 | 
[V:2] c4z2d2- | 
[V:3] z8 | 
[V:4] A,G,F,E,D,4 | 
[V:1] z8 | 
[V:2] dcB2A2B2- | 
[V:3] z8 | 
[V:4] z2G,2F,2G,2- | 
[V:1] z4z2d2- | 
[V:2] Bcd3cBA | 
[V:3] z8 | 
[V:4] G,2F,E,D,2G,,2 | 
[V:1] dcBAB2A2- | 
[V:2] G4d4 | 
[V:3] z8 | 
[V:4] z2G,3F,D,E, | 
[V:1] A2G4^F2 | 
[V:2] c2B2A4 | 
[V:3] z8 | 
[V:4] F,2G,2D,4 | 
[V:1] G8 | 
[V:2] z2G2G3A | 
[V:3] z8 | 
[V:4] G,,4z2C,2 | 
[V:1] z4z2E2 | 
[V:2] B2c4c2 | 
[V:3] z8 | 
[V:4] D,2E,2C,2E,2 | 
[V:1] F2G2E2G2 | 
[V:2] d2e2c2e2 | 
[V:3] z8 | 
[V:4] D,2C,4C,2 | 
[V:1] F2E4E2 | 
[V:2] d2c4c2 | 
[V:3] z8 | 
[V:4] D,2E,2C,2E,2 | 
[V:1] F2G2E2G2 | 
[V:2] d2e2c2e2 | 
[V:3] z8 | 
[V:4] D,2C,4C,2 | 
[V:1] F2E4E2 | 
[V:2] d2c4c2- | 
[V:3] z8 | 
[V:4] D,2E,2C,2E,2 | 
[V:1] F2G2E2G2 | 
[V:2] cde3dBc | 
[V:3] z8 | 
[V:4] D,2C,2E,4 | 
[V:1] F2E2B4 | 
[V:2] dcBA^G3^F | 
[V:3] z8 | 
[V:4] D,2C,2B,,4 | 
[V:1] c6A2- | 
[V:2] A8- | 
[V:3] z8 | 
[V:4] A,,3B,,C,2D,2- | 
[V:1] AGFEF4 | 
[V:2] A8- | 
[V:3] z8 | 
[V:4] D,2C,2D,4 | 
[V:1] E8 ||  
[V:2] A8 ||  
[V:3] z8 ||  
[V:4] A,,8 ||  
[V:1]  [K:C] [K:clef=treble][M:3/1]z12 | 
[V:2]  [K:C] [K:clef=treble-8][M:3/1]z12 | 
[V:3]  [K:C] [K:clef=treble-8][M:3/1]z12 | 
[V:4]  [K:C] [K:clef=bass][M:3/1]D,4D,4C,4 | 
[V:1] z12 | 
[V:2] z12 | 
[V:3] A4A4G4 | 
[V:4] F,6D,2E,4 | 
[V:1] A4A4G4 | 
[V:2] z12 | 
[V:3] c6A2B4 | 
[V:4] A,,8z4 | 
[V:1] c6A2B4 | 
[V:2] A4A4G4 | 
[V:3] z12 | 
[V:4] z12 | 
[V:1] E8z4 | 
[V:2] c6d2e4 | 
[V:3] z12 | 
[V:4] A,,6B,,2C,4 | 
[V:1] D4D4C4 | 
[V:2] f6d2e4 | 
[V:3] z12 | 
[V:4] D,4B,,4C,4 | 
[V:1] F6D2E4 | 
[V:2] A8z4 | 
[V:3] A4A4G4 | 
[V:4] F,,8z4 | 
[V:1] A,8z4 | 
[V:2] A4A4G4 | 
[V:3] c8B4 | 
[V:4] z12 | 
[V:1] A,6B,2C4 | 
[V:2] c4F4E4 | 
[V:3] z12 | 
[V:4] F,,6G,,2A,,4 | 
[V:1] D8C4 | 
[V:2] D4E8 | 
[V:3] z12 | 
[V:4] _B,,4G,,4A,,4 | 
[V:1] D8F4 | 
[V:2] D4d6c2 | 
[V:3] z12 | 
[V:4] _B,,6C,2D,4 | 
[V:1] G8F4 | 
[V:2] B4A4d4 | 
[V:3] z4A4A4 | 
[V:4] E,4C,4D,4 | 
[V:1] G8z4 | 
[V:2] B4e8 | 
[V:3] G4c8 | 
[V:4] E,8z4 | 
[V:1] G6A2B4 | 
[V:2] e8d4 | 
[V:3] B12 | 
[V:4] E,6F,2G,4 | 
[V:1] c8B4 | 
[V:2] c4d8 | 
[V:3] z12 | 
[V:4] A,4F,4G,4 | 
[V:1] c4A4B4 | 
[V:2] c8B4 | 
[V:3] A4A4G4 | 
[V:4] A,4F,4G,4 | 
[V:1] c4A4B4 | 
[V:2] A8G4 | 
[V:3] c8B4 | 
[V:4] A,4F,4G,4 | 
[V:1] E8z4 | 
[V:2] c8B4 | 
[V:3] z12 | 
[V:4] C,6D,2E,4 | 
[V:1] z12 | 
[V:2] c6d2e4 | 
[V:3] z12 | 
[V:4] A,,8z4 | 
[V:1] E6F2G4 | 
[V:2] A8G4 | 
[V:3] z12 | 
[V:4] z12 | 
[V:1] C6D2E4 | 
[V:2] A8z4 | 
[V:3] A4A4G4 | 
[V:4] A,,6B,,2C,4 | 
[V:1] A,4E6F2 | 
[V:2] A4G4A4 | 
[V:3] c8c4 | 
[V:4] F,,4C,4z4 | 
[V:1] G4C4G4 | 
[V:2] E8E4 | 
[V:3] B4z4z4 | 
[V:4] z4C,6B,,2 | 
[V:1] A4c8 | 
[V:2] F8F4 | 
[V:3] A8A4 | 
[V:4] A,,2G,,2F,,8 | 
[V:1] B8G4 | 
[V:2] D4d4B4 | 
[V:3] G8G4 | 
[V:4] G,,12 | 
[V:1] A4^F6E2 | 
[V:2] c4A8 | 
[V:3] c8c4 | 
[V:4] z12 | 
[V:1] G8z4 | 
[V:2] G4z4d4 | 
[V:3] B8z4 | 
[V:4] G,,6A,,2B,,4 | 
[V:1] E4F4G4 | 
[V:2] e4d4B4 | 
[V:3] A4A4G4 | 
[V:4] C,4D,4E,4 | 
[V:1] A4E4z4 | 
[V:2] c4A4e4- | 
[V:3] c8B4 | 
[V:4] A,,8z4 | 
[V:1] G4A4B4 | 
[V:2] e4d8 | 
[V:3] z12 | 
[V:4] E,4F,4G,4 | 
[V:1] c8z4 | 
[V:2] c8d4 | 
[V:3] A4A4G4 | 
[V:4] A,8z4 | 
[V:1] G4A4B4 | 
[V:2] e8d4 | 
[V:3] c8B4 | 
[V:4] E,4F,4G,4 | 
[V:1] c4C4D4 | 
[V:2] c4e4f4 | 
[V:3] A12- | 
[V:4] A,8z4 | 
[V:1] E4F4G4 | 
[V:2] e4d2c2B4 | 
[V:3] A8G4 | 
[V:4] C,4D,4E,4 | 
[V:1] C4D4E4 | 
[V:2] A6B2c4 | 
[V:3] A12- | 
[V:4] F,8E,4 | 
[V:1] F6E2E4 | 
[V:2] d4D4E4 | 
[V:3] A12- | 
[V:4] D,8C,4 | 
[V:1] D8^C4 | 
[V:2] F4E8 | 
[V:3] A12- | 
[V:4] D,4A,,8 | 
[V:1] D12 ||  
[V:2] D12 ||  
[V:3] A12 ||  
[V:4] D,12 ||  
[V:1]  [K:C] [K:clef=treble][M:2/1]z8 | 
[V:2]  [K:C] [K:clef=treble-8][M:2/1]A6G2 | 
[V:3]  [K:C] [K:clef=treble-8][M:2/1]z8 | 
[V:4]  [K:C] [K:clef=bass][M:2/1]z8 | 
[V:1] z8 | 
[V:2] A2D2A4 | 
[V:3] z8 | 
[V:4] D,6C,2 | 
[V:1] z8 | 
[V:2] _B4A4 | 
[V:3] z8 | 
[V:4] D,2G,,2D,4 | 
[V:1] z8 | 
[V:2] z2G2A2D2 | 
[V:3] z8 | 
[V:4] E,4D,4 | 
[V:1] z8 | 
[V:2] A4_B4 | 
[V:3] z8 | 
[V:4] z2C,2D,2G,,2 | 
[V:1] z8 | 
[V:2] A2d4c2 | 
[V:3] z8 | 
[V:4] D,4E,4 | 
[V:1] z2F4E2 | 
[V:2] _B4A4 | 
[V:3] z8 | 
[V:4] z2D,4C,2 | 
[V:1] D4C4 | 
[V:2] z4z2e2- | 
[V:3] z8 | 
[V:4] _B,,4A,,4 | 
[V:1] z4z2G2- | 
[V:2] e2d2c2B2- | 
[V:3] z8 | 
[V:4] C,2D,2E,3F, | 
[V:1] G2F2E4 | 
[V:2] BAd4^c2 | 
[V:3] z8 | 
[V:4] G,2D,2A,4 | 
[V:1] D4z4 | 
[V:2] d2f4e2 | 
[V:3] z8 | 
[V:4] z2D,4C,2 | 
[V:1] z2A4G2 | 
[V:2] d4c4 | 
[V:3] z8 | 
[V:4] D,2F,4E,2 | 
[V:1] F2c3BG2 | 
[V:2] z2f4e2 | 
[V:3] z8 | 
[V:4] D,2A,4G,2 | 
[V:1] A4G4- | 
[V:2] e2d2e2dc | 
[V:3] z8 | 
[V:4] F,4E,4- | 
[V:1] G4z4 | 
[V:2] BAB2z2A2 | 
[V:3] z8 | 
[V:4] E,4A,,4- | 
[V:1] z4z2E2 | 
[V:2] c2def2e2 | 
[V:3] z8 | 
[V:4] A,,4z4 | 
[V:1] G2ABc2B2 | 
[V:2] edcBA2E2 | 
[V:3] z8 | 
[V:4] z8 | 
[V:1] BAGFE4- | 
[V:2] G2ABc2B2 | 
[V:3] z8 | 
[V:4] z4z2E,2- | 
[V:1] E4z2C2 | 
[V:2] BAGFE4- | 
[V:3] z8 | 
[V:4] E,F,G,2C,2A,,2 | 
[V:1] E2FGA2G2 | 
[V:2] E4z4 | 
[V:3] z8 | 
[V:4] C,2D,E,F,2E,2 | 
[V:1] GFEDC4 | 
[V:2] z4z2A2 | 
[V:3] z8 | 
[V:4] E,D,C,B,,A,,4 | 
[V:1] z4z2c2- | 
[V:2] c2def2e2- | 
[V:3] z8 | 
[V:4] A,4A,4- | 
[V:1] c2B4A2- | 
[V:2] e2dcdcBA | 
[V:3] z8 | 
[V:4] A,2G,2A,4 | 
[V:1] A2^G2A4 | 
[V:2] B4A4- | 
[V:3] z8 | 
[V:4] E,4A,,3B,, | 
[V:1] z2F3ED2 | 
[V:2] A8- | 
[V:3] z8 | 
[V:4] C,2D,3E,F,2- | 
[V:1] C2D2E2F2 | 
[V:2] A8- | 
[V:3] z8 | 
[V:4] F,2E,D,C,2D,2 | 
[V:1] E2D2F2ED | 
[V:2] A8- | 
[V:3] z8 | 
[V:4] A,,2F,2D,2E,2 | 
[V:1] C2D2E4 | 
[V:2] A4G4- | 
[V:3] z8 | 
[V:4] F,4C,3D, | 
[V:1] z2E3FG2- | 
[V:2] G8- | 
[V:3] z8 | 
[V:4] E,4z2E,2- | 
[V:1] G2E2D2G2 | 
[V:2] G4B4- | 
[V:3] z8 | 
[V:4] E,F,G,4E,2 | 
[V:1] F2G3AB2 | 
[V:2] B8- | 
[V:3] z8 | 
[V:4] D,2G,2E,2G,2- | 
[V:1] G2d4cB | 
[V:2] B4d4 | 
[V:3] z8 | 
[V:4] G,A,B,2G,4 | 
[V:1] A4G4- | 
[V:2] z2d2e2c2- | 
[V:3] z8 | 
[V:4] F,4E,4- | 
[V:1] G4z4 | 
[V:2] cBc2d2B2 | 
[V:3] z8 | 
[V:4] E,4z2G,2 | 
[V:1] z4z4 | 
[V:2] c2A3GA2 | 
[V:3] z8 | 
[V:4] A,2F,3E,F,2 | 
[V:1] z2G2A2F2- | 
[V:2] B2c2A4 | 
[V:3] z8 | 
[V:4] G,2E,2F,2D,2- | 
[V:1] FEF2G2E2 | 
[V:2] z2A2G2A2- | 
[V:3] z8 | 
[V:4] D,C,D,2E,2C,2 | 
[V:1] F2D3CD2 | 
[V:2] A2F3EF2 | 
[V:3] z8 | 
[V:4] D,4z4 | 
[V:1] E2C2D2A2- | 
[V:2] G2E2F2D2- | 
[V:3] z8 | 
[V:4] z2G,2A,2F,2- | 
[V:1] AGA2B2G2 | 
[V:2] D2d4e2 | 
[V:3] z8 | 
[V:4] F,E,F,2G,2E,2 | 
[V:1] A2F3EF2 | 
[V:2] c2d2A2d2 | 
[V:3] z8 | 
[V:4] F,2D,3C,D,2 | 
[V:1] G2E3DD2- | 
[V:2] c2B4A2- | 
[V:3] z8 | 
[V:4] E,3C,D,2F,2 | 
[V:1] D2^C2D4 ||  
[V:2] A2G2A4 ||  
[V:3] z8 ||  
[V:4] E,4D,4 ||  
[V:1]  [K:C] [K:clef=treble][M:2/1]z4E4 | 
[V:2]  [K:C] [K:clef=treble-8][M:2/1]c8 | 
[V:3]  [K:C] [K:clef=treble-8][M:2/1]A8 | 
[V:4]  [K:C] [K:clef=bass][M:2/1]A,,8 | 
[V:1] E4G4 | 
[V:2] c4d2e2 | 
[V:3] A4B4 | 
[V:4] A,,4G,,4 | 
[V:1] A8 | 
[V:2] f3ec2d2 | 
[V:3] A4A2A2- | 
[V:4] F,,2F,4F,2- | 
[V:1] A4A2A2- | 
[V:2] D4z2A2- | 
[V:3] A2GFc4- | 
[V:4] F,2E,D,A,4 | 
[V:1] A2GFc4- | 
[V:2] AGE2F4 | 
[V:3] c2B2A4 | 
[V:4] A,,8 | 
[V:1] c2B2A4 | 
[V:2] E4z2F2 | 
[V:3] G4z2d2 | 
[V:4] z2E,2F,2D,2 | 
[V:1] G4z2G2 | 
[V:2] G2C2G4 | 
[V:3] B2c4B2 | 
[V:4] E,8 | 
[V:1] A2G2A2F2 | 
[V:2] z2G2D2F2 | 
[V:3] c2B2A2d2 | 
[V:4] z2E,2F,2D,2 | 
[V:1] G2E2D4 | 
[V:2] E2A3FG2 | 
[V:3] G2c4B2- | 
[V:4] E,2A,,2B,,2G,,2 | 
[V:1] z2c4B2- | 
[V:2] E4z2e2- | 
[V:3] B2A4G2 | 
[V:4] A,,4E,4 | 
[V:1] B2A4^G2 | 
[V:2] e2e2e4- | 
[V:3] A4B4 | 
[V:4] z4E,4 | 
[V:1] A8 | 
[V:2] e4c3d | 
[V:3] A4z4 | 
[V:4] A,,4A,,3B,, | 
[V:1] z4A4- | 
[V:2] e2f2d2e2 | 
[V:3] z2F4E2- | 
[V:4] C,2D,4C,2 | 
[V:1] A4A4 | 
[V:2] A2f4e2- | 
[V:3] E2D4C2 | 
[V:4] D,4A,,4 | 
[V:1] A8 | 
[V:2] e2d4^c2 | 
[V:3] D4E4 | 
[V:4] z4A,,4 | 
[V:1] F8 | 
[V:2] d8 | 
[V:3] D8 | 
[V:4] _B,,6A,,2 | 
[V:1] G4A2F2 | 
[V:2] B4A4 | 
[V:3] E4F4 | 
[V:4] G,,4F,,2F,2 | 
[V:1] E2F2G2A2 | 
[V:2] z2c4BA | 
[V:3] G2A2G2c2 | 
[V:4] C,2F,2E,2F,2 | 
[V:1] B2c4BA | 
[V:2] G2F2A4 | 
[V:3] B2A2c4- | 
[V:4] G,2A,4F,2- | 
[V:1] G4z2c2- | 
[V:2] z2c3BA2 | 
[V:3] c8- | 
[V:4] F,2E,2F,4 | 
[V:1] cBA2G2c2- | 
[V:2] G2F2G2A2 | 
[V:3] c4c4 | 
[V:4] z2F,2E,2F,2 | 
[V:1] cBA2G2F2- | 
[V:2] G2F2c4 | 
[V:3] z2c3BA2 | 
[V:4] E,2F,2E,2F,2 | 
[V:1] F2E2F2D2 | 
[V:2] c3Bc2d2 | 
[V:3] G4F4 | 
[V:4] C,4F,,2_B,,2 | 
[V:1] E2F4D2 | 
[V:2] c2A2_B4 | 
[V:3] E2D2F4 | 
[V:4] C,2D,2_B,,4 | 
[V:1] E2F4ED | 
[V:2] G2F2D4 | 
[V:3] E2D2F2G2 | 
[V:4] C,2D,2_B,,4 | 
[V:1] C4z2F2- | 
[V:2] E4F3G | 
[V:3] A4D4 | 
[V:4] A,,4z2D,2- | 
[V:1] F2D2E2F2- | 
[V:2] A2_B2G2F2 | 
[V:3] z2F2E2D2 | 
[V:4] D,2_B,,2C,2D,2- | 
[V:1] F2D2E2F2- | 
[V:2] A2_B2G2F2 | 
[V:3] F4E2A2- | 
[V:4] D,2_B,,2C,2D,2 | 
[V:1] F2EDC4 | 
[V:2] D4A4 | 
[V:3] AGG3EF2 | 
[V:4] _B,,4A,,4 | 
[V:1] z2D2E2G2- | 
[V:2] _B8 | 
[V:3] G2D2G3F | 
[V:4] G,,8 | 
[V:1] GFEDD3^C | 
[V:2] A8 | 
[V:3] EDF2E4 | 
[V:4] A,,8 | 
[V:1] D8 |]  
[V:2] A8 |]  
[V:3] D8 |]  
[V:4] D,8 |]  



